assets/images/kids/carrot_bite.svg

<svg width="391" height="411" viewBox="0 0 391 411" fill="none" xmlns="http://www.w3.org/2000/svg">
<path d="M41.8578 279.562C15.7225 340.596 0.288273 397.355 9.05491 402.287C30.0043 413.959 124.997 371.462 193.072 318.114C233.901 285.974 265.222 250.052 265.304 219.515C265.304 210.226 263.411 200.568 259.995 191.197H259.953" stroke="#3F2A25" stroke-width="2" stroke-linecap="round" stroke-linejoin="round"/>
<path d="M137.591 131.438C142.365 128.027 147.222 125.684 151.832 124.328C166.69 120.012 181.671 121.245 195.624 126.136H195.665" stroke="#3F2A25" stroke-width="2" stroke-linecap="round" stroke-linejoin="round"/>
<path d="M259.953 191.115H259.995C303.334 182.443 338.236 154.413 336.672 144.508C333.914 127.122 309.466 141.713 307.367 128.972C305.145 114.833 403.471 22.9338 379.682 6.4938C363.177 -4.9731 256.126 94.7355 236.041 93.3381C220.36 92.2284 232.83 63.1296 220.03 63.1296C212.54 63.1296 195.994 98.9688 195.665 126.177" stroke="#3F2A25" stroke-width="2" stroke-linecap="round" stroke-linejoin="round"/>
<path d="M41.8578 279.521C52.9704 283.22 59.6791 281.905 63.8361 279.069C68.5692 275.822 70.3802 270.767 71.6972 265.3C73.7551 257.574 74.9487 249.148 82.6864 244.257C96.8035 235.667 111.909 251.655 124.832 242.942C135.533 235.544 138.208 215.364 132.117 202.335C126.478 190.334 119.934 190.786 119.934 183.347C119.934 177.881 124.997 174.305 130.471 170.442C136.274 166.455 142.777 162.427 145.164 155.933C147.098 150.59 146.07 143.028 137.591 131.479" stroke="#3F2A25" stroke-width="2" stroke-linecap="round" stroke-linejoin="round"/>
<path d="M260.653 191.115C264.069 200.527 265.962 210.185 265.962 219.474C265.88 250.011 234.559 285.892 193.73 318.073C125.614 371.421 30.6624 413.918 9.71307 402.246C0.946438 397.314 16.3807 340.555 42.5159 279.521C53.6285 283.22 60.2961 281.905 64.4531 279.069C69.2274 275.822 70.9972 270.767 72.3142 265.301C74.4133 257.574 75.6068 249.148 83.3034 244.257C97.4205 235.667 112.525 251.655 125.449 242.901C136.15 235.503 138.825 215.323 132.734 202.294C127.095 190.293 120.551 190.745 120.551 183.347C120.551 177.84 125.614 174.305 131.088 170.442C136.891 166.455 143.394 162.427 145.781 155.892C147.715 150.59 146.687 143.028 138.208 131.438H138.249C142.982 128.027 147.88 125.684 152.449 124.328C167.307 120.012 182.288 121.245 196.241 126.136H196.323C196.652 99.0099 213.157 63.1296 220.688 63.1296C233.489 63.1296 221.018 92.2284 236.699 93.3381C256.784 94.7355 363.836 -4.9731 380.34 6.4938C404.129 22.9338 305.803 114.833 308.025 128.972C310.125 141.713 334.572 127.122 337.33 144.508C338.894 154.413 303.992 182.443 260.653 191.115Z" fill="#BC7171"/>
<path d="M382.275 10.0694C391.659 33.4964 304.857 115.491 306.997 128.766C309.055 141.548 333.544 126.958 336.301 144.302C337.865 154.248 302.922 182.237 259.542 190.95C258.719 188.608 257.731 186.306 256.702 184.005C280.738 175.949 310.084 162.797 309.549 149.933C309.096 140.192 297.366 145.371 291.357 135.013C282.549 119.724 381.616 31.9346 381.616 10.316L382.275 10.0694Z" fill="#6A964D"/>
<path d="M382.275 10.0694L381.616 10.316C381.616 31.9346 282.549 119.724 291.357 135.013C297.366 145.371 309.096 140.192 309.549 149.933C310.084 162.797 280.738 175.949 256.702 184.005C252.504 174.798 246.865 165.962 240.115 157.947C239.292 156.961 238.469 156.015 237.605 155.07C238.428 155.193 239.539 154.782 240.897 154.002C241.762 157.947 244.56 161.317 247.647 160.331C259.336 155.44 268.514 149.809 267.568 146.645C266.786 144.138 260.859 142.946 252.668 143.439C264.81 129.999 278.351 109.038 273.535 103.818C267.897 97.6946 235.464 124.451 229.949 131.314C226.739 135.26 227.397 141.877 229.743 147.097C219.577 137.726 207.765 130.287 195.212 125.93C195.212 98.6399 212.046 62.9651 219.619 62.9651C227.192 62.9651 225.792 74.0621 226.986 82.8164H226.533C227.233 90.6665 221.471 101.64 225.916 103.818C230.772 106.243 236.987 95.3519 245.095 90.2555C278.022 74.1443 364.536 -3.9046 379.311 6.3293C380.711 7.3157 381.698 8.5898 382.275 10.0694Z" fill="#77B566"/>
<path d="M273.535 103.818C278.351 109.038 264.81 129.999 252.668 143.439C250.816 143.521 248.882 143.727 246.824 144.014C241.103 144.507 239.827 149.604 240.897 154.002C239.539 154.782 238.428 155.194 237.605 155.07C235.094 152.275 232.46 149.604 229.743 147.097C227.397 141.877 226.739 135.26 229.949 131.314C235.464 124.451 267.897 97.6946 273.535 103.818Z" fill="#6A964D"/>
<path d="M267.568 146.645C268.514 149.809 259.336 155.44 247.647 160.331C244.56 161.317 241.762 157.947 240.897 154.002C243.984 152.234 248.223 148.33 252.668 143.439C260.859 142.946 266.786 144.138 267.568 146.645Z" fill="#6A964D"/>
<path d="M259.542 190.951H259.583C262.999 200.321 264.933 209.98 264.933 219.31C264.769 249.847 233.489 285.686 192.66 317.867C186.692 308.825 181.671 302.003 176.32 296.167C218.754 248.449 258.76 193.006 239.704 158.317L240.115 157.947C246.865 165.962 252.504 174.798 256.702 184.005C257.731 186.306 258.719 188.608 259.542 190.951Z" fill="#C47B49"/>
<path d="M246.824 144.014C248.882 143.727 250.816 143.521 252.668 143.439C248.223 148.33 243.984 152.234 240.897 154.002C239.827 149.604 241.103 144.508 246.824 144.014Z" fill="#6A964D"/>
<path d="M71.2444 265.095C73.3434 257.409 74.537 248.943 82.2335 244.052C96.3507 235.462 111.456 251.45 124.379 242.736C135.08 235.297 137.756 215.158 131.664 202.13C126.026 190.128 119.481 190.539 119.481 183.141C119.481 177.675 124.544 174.099 130.018 170.236C135.821 166.249 142.365 162.263 144.711 155.728C146.646 150.385 145.617 142.822 137.138 131.273C141.912 127.862 146.81 125.478 151.379 124.163C166.237 119.847 181.218 121.039 195.171 125.93H195.212C207.765 130.287 219.577 137.726 229.743 147.097C231.637 151.289 234.6 154.659 237.563 155.07H237.605C238.469 156.015 239.292 156.961 240.115 157.947L239.704 158.317C258.76 193.005 218.754 248.449 176.32 296.166C174.098 298.632 171.917 301.098 169.694 303.523C112.073 367.064 38.4827 396.533 11.2362 403.109C10.2484 402.821 9.38406 402.451 8.64321 402.04C-0.123417 397.149 15.3108 340.39 41.4049 279.315C52.5587 283.056 59.2263 281.699 63.3832 278.904C68.1575 275.616 69.9273 270.602 71.2444 265.095Z" fill="#E09F57"/>
<path d="M237.605 155.07H237.563C234.6 154.659 231.637 151.289 229.743 147.097C232.46 149.604 235.094 152.275 237.605 155.07Z" fill="#E09F57"/>
<path d="M235.629 93.1325C237.81 93.2969 241.062 92.2283 245.095 90.2555C236.987 95.3519 230.772 106.243 225.916 103.819C221.471 101.64 227.233 90.6665 226.533 82.8575H226.986C227.768 88.2005 229.661 92.6804 235.629 93.1325Z" fill="#6A964D"/>
<path d="M192.66 317.826C127.054 369.242 36.466 410.63 11.2362 403.109C38.4827 396.533 112.073 367.064 169.694 303.523C171.917 301.099 174.098 298.633 176.32 296.167C181.671 302.003 186.692 308.825 192.66 317.826Z" fill="#C47B49"/>
<path d="M137.838 131.479C142.571 128.068 147.469 125.684 152.078 124.369C166.936 120.053 181.918 121.245 195.87 126.136C224.969 136.205 249.746 162.756 260.283 191.197C263.699 200.527 265.633 210.185 265.633 219.515C265.468 250.052 234.188 285.892 193.36 318.073C125.243 371.421 30.251 413.959 9.34279 402.246C0.576161 397.355 16.0104 340.596 42.1456 279.521" stroke="#3F2A25" stroke-linecap="round" stroke-linejoin="round"/>
<path d="M195.912 126.136C195.912 98.8456 212.704 63.2119 220.277 63.2119C233.077 63.2119 220.606 92.2696 236.287 93.3793C256.414 94.8178 363.383 -4.89081 379.97 6.57609C403.759 23.0161 305.392 114.875 307.655 129.054C309.713 141.836 334.202 127.246 336.96 144.59C338.524 154.536 303.539 182.525 260.2 191.197" stroke="#3F2A25" stroke-linecap="round" stroke-linejoin="round"/>
<path d="M130.717 170.483C154.301 183.512 172.698 198.924 182.659 221.324" stroke="#3F2A25" stroke-linecap="round" stroke-linejoin="round"/>
<path d="M71.944 265.301C90.5062 272.411 103.841 282.48 124.05 298.633" stroke="#3F2A25" stroke-linecap="round" stroke-linejoin="round"/>
<path d="M26.1352 319.84C50.2126 319.84 68.816 329.375 87.0901 345.939" stroke="#3F2A25" stroke-linecap="round" stroke-linejoin="round"/>
<path d="M193.319 318.032C178.337 295.427 169.159 286.508 147.181 272.493" stroke="#3F2A25" stroke-linecap="round" stroke-linejoin="round"/>
<path d="M42.1045 279.562C53.2171 283.261 59.9259 281.946 64.0828 279.11C68.816 275.863 70.6269 270.808 71.944 265.342C74.0019 257.615 75.1955 249.189 82.9331 244.299C97.0503 235.709 112.155 251.697 125.079 242.983C135.78 235.585 138.455 215.405 132.364 202.377C126.725 190.375 120.181 190.827 120.181 183.388C120.181 177.922 125.243 174.346 130.717 170.483C136.521 166.496 143.024 162.468 145.411 155.975C147.345 150.632 146.316 143.069 137.838 131.52" stroke="#3F2A25" stroke-linecap="round" stroke-linejoin="round"/>
</svg>

<svg xmlns="http://www.w3.org/2000/svg" width="391" height="411" fill="none" xmlns:v="https://vecta.io/nano"><path d="M41.858 279.562C15.723 340.596.288 397.355 9.055 402.287c20.949 11.672 115.942-30.825 184.017-84.173 40.829-32.14 72.15-68.062 72.232-98.599 0-9.289-1.893-18.947-5.309-28.318h-.042m-122.362-59.759c4.774-3.411 9.631-5.754 14.241-7.11 14.858-4.316 29.839-3.083 43.792 1.808h.041m64.288 64.979h.042c43.339-8.672 78.241-36.702 76.677-46.607-2.758-17.386-27.206-2.795-29.305-15.536-2.222-14.139 96.104-106.038 72.315-122.478-16.505-11.467-123.556 88.242-143.641 86.844-15.681-1.11-3.211-30.208-16.011-30.208-7.49 0-24.036 35.839-24.365 63.047M41.858 279.521c11.113 3.699 17.821 2.384 21.978-.452 4.733-3.247 6.544-8.302 7.861-13.769 2.058-7.726 3.252-16.152 10.989-21.043 14.117-8.59 29.223 7.398 42.146-1.315 10.701-7.398 13.376-27.578 7.285-40.607-5.639-12.001-12.183-11.549-12.183-18.988 0-5.466 5.063-9.042 10.537-12.905 5.803-3.987 12.306-8.015 14.693-14.509 1.934-5.343.906-12.905-7.573-24.454" stroke="#3f2a25" stroke-width="2" stroke-linecap="round" stroke-linejoin="round"/><path d="M260.653 191.115c3.416 9.412 5.309 19.07 5.309 28.359-.082 30.537-31.403 66.418-72.232 98.599-68.116 53.348-163.068 95.845-184.017 84.173-8.767-4.932 6.668-61.691 32.803-122.725 11.113 3.699 17.78 2.384 21.937-.452 4.774-3.247 6.544-8.302 7.861-13.768 2.099-7.727 3.293-16.153 10.989-21.044 14.117-8.59 29.222 7.398 42.146-1.356 10.701-7.398 13.376-27.578 7.285-40.607-5.639-12.001-12.183-11.549-12.183-18.947 0-5.507 5.063-9.042 10.537-12.905 5.803-3.987 12.306-8.015 14.693-14.55 1.934-5.302.906-12.864-7.573-24.454h.041c4.733-3.411 9.631-5.754 14.2-7.11 14.858-4.316 29.839-3.083 43.792 1.808h.082c.329-27.126 16.834-63.006 24.365-63.006 12.801 0 .33 29.099 16.011 30.208C256.784 94.736 363.836-4.973 380.34 6.494c23.789 16.44-74.537 108.339-72.315 122.478 2.1 12.741 26.547-1.85 29.305 15.536 1.564 9.905-33.338 37.935-76.677 46.607z" fill="#bc7171"/><path d="M382.275 10.069c9.384 23.427-77.418 105.422-75.278 118.697 2.058 12.782 26.547-1.808 29.304 15.536 1.564 9.946-33.379 37.935-76.759 46.648-.823-2.342-1.811-4.644-2.84-6.945 24.036-8.056 53.382-21.208 52.847-34.072-.453-9.741-12.183-4.562-18.192-14.92-8.808-15.289 90.259-103.078 90.259-124.697l.659-.247z" fill="#6a964d"/><path d="M382.275 10.069l-.659.247c0 21.619-99.067 109.408-90.259 124.697 6.009 10.358 17.739 5.179 18.192 14.92.535 12.864-28.811 26.016-52.847 34.072-4.198-9.207-9.837-18.043-16.587-26.058-.823-.986-1.646-1.932-2.51-2.877.823.123 1.934-.288 3.292-1.068.865 3.945 3.663 7.315 6.75 6.329 11.689-4.891 20.867-10.522 19.921-13.686-.782-2.507-6.709-3.699-14.9-3.206 12.142-13.44 25.683-34.401 20.867-39.621-5.638-6.123-38.071 20.633-43.586 27.496-3.21 3.946-2.552 10.563-.206 15.783-10.166-9.371-21.978-16.81-34.531-21.167 0-27.29 16.834-62.965 24.407-62.965s6.173 11.097 7.367 19.851h-.453c.7 7.85-5.062 18.824-.617 21.002 4.856 2.425 11.071-8.466 19.179-13.562 32.927-16.111 119.441-94.16 134.216-83.926 1.4.986 2.387 2.261 2.964 3.74z" fill="#77b566"/><g fill="#6a964d"><path d="M273.535 103.818c4.816 5.22-8.725 26.181-20.867 39.621-1.852.082-3.786.288-5.844.575-5.721.493-6.997 5.59-5.927 9.988-1.358.78-2.469 1.192-3.292 1.068a119.85 119.85 0 0 0-7.862-7.973c-2.346-5.22-3.004-11.837.206-15.783 5.515-6.863 37.948-33.619 43.586-27.496z"/><path d="M267.568 146.645c.946 3.164-8.232 8.795-19.921 13.686-3.087.986-5.885-2.384-6.75-6.329 3.087-1.768 7.326-5.672 11.771-10.563 8.191-.493 14.118.699 14.9 3.206z"/></g><path d="M259.542 190.951h.041c3.416 9.37 5.35 19.029 5.35 28.359-.164 30.537-31.444 66.376-72.273 98.557-5.968-9.042-10.989-15.864-16.34-21.7 42.434-47.718 82.44-103.161 63.384-137.85l.411-.37c6.75 8.015 12.389 16.851 16.587 26.058 1.029 2.301 2.017 4.603 2.84 6.946z" fill="#c47b49"/><path d="M246.824 144.014l5.844-.575c-4.445 4.891-8.684 8.795-11.771 10.563-1.07-4.398.206-9.494 5.927-9.988z" fill="#6a964d"/><g fill="#e09f57"><path d="M71.244 265.095c2.099-7.686 3.293-16.152 10.989-21.043 14.117-8.59 29.222 7.398 42.146-1.316 10.701-7.439 13.377-27.578 7.285-40.606-5.638-12.002-12.183-11.591-12.183-18.989 0-5.466 5.063-9.042 10.537-12.905 5.803-3.987 12.347-7.973 14.693-14.508 1.935-5.343.906-12.906-7.573-24.455 4.774-3.411 9.672-5.795 14.241-7.11 14.858-4.316 29.839-3.124 43.792 1.767h.041c12.553 4.357 24.365 11.796 34.531 21.167 1.894 4.192 4.857 7.562 7.82 7.973h.042c.864.945 1.687 1.891 2.51 2.877l-.411.37c19.056 34.688-20.95 90.132-63.384 137.849l-6.626 7.357c-57.621 63.541-131.211 93.01-158.458 99.586-.988-.288-1.852-.658-2.593-1.069-8.767-4.891 6.668-61.65 32.762-122.725 11.154 3.741 17.821 2.384 21.978-.411 4.774-3.288 6.544-8.302 7.861-13.809z"/><path d="M237.605 155.07h-.042c-2.963-.411-5.926-3.781-7.82-7.973a119.85 119.85 0 0 1 7.862 7.973z"/></g><path d="M235.629 93.133c2.181.164 5.433-.904 9.466-2.877-8.108 5.096-14.323 15.987-19.179 13.564-4.445-2.179 1.317-13.153.617-20.961h.453c.782 5.343 2.675 9.823 8.643 10.275z" fill="#6a964d"/><path d="M192.66 317.826c-65.606 51.416-156.194 92.804-181.424 85.283 27.247-6.576 100.837-36.045 158.458-99.586l6.626-7.356c5.351 5.836 10.372 12.658 16.34 21.659z" fill="#c47b49"/><g stroke="#3f2a25" stroke-linecap="round" stroke-linejoin="round"><path d="M137.838 131.479c4.733-3.411 9.631-5.795 14.24-7.11 14.858-4.316 29.84-3.124 43.792 1.767 29.099 10.069 53.876 36.62 64.413 65.061 3.416 9.33 5.35 18.988 5.35 28.318-.165 30.537-31.445 66.377-72.273 98.558-68.117 53.348-163.109 95.886-184.017 84.173-8.767-4.891 6.668-61.65 32.803-122.725"/><path d="M195.912 126.136c0-27.29 16.792-62.924 24.365-62.924 12.8 0 .329 29.058 16.01 30.167 20.127 1.439 127.096-98.27 143.683-86.803 23.789 16.44-74.578 108.299-72.315 122.478 2.058 12.782 26.547-1.808 29.305 15.536 1.564 9.946-33.421 37.935-76.76 46.607m-129.483-20.714c23.584 13.029 41.981 28.441 51.942 50.841M71.944 265.301c18.562 7.11 31.897 17.179 52.106 33.332M26.135 319.84c24.077 0 42.681 9.535 60.955 26.099m106.229-27.907c-14.982-22.605-24.16-31.524-46.138-45.539"/><path d="M42.105 279.562c11.113 3.699 17.821 2.384 21.978-.452 4.733-3.247 6.544-8.302 7.861-13.768 2.058-7.727 3.251-16.153 10.989-21.043 14.117-8.59 29.222 7.398 42.146-1.316 10.701-7.398 13.376-27.578 7.285-40.606-5.639-12.002-12.183-11.55-12.183-18.989 0-5.466 5.062-9.042 10.536-12.905 5.804-3.987 12.307-8.015 14.694-14.508 1.934-5.343.905-12.906-7.573-24.455"/></g></svg>
